COLOR/categories 16/16/security-high.svg

<svg height="16" width="16" xmlns="http://www.w3.org/2000/svg" xmlns:xlink="http://www.w3.org/1999/xlink"><filter id="a" color-interpolation-filters="sRGB" height="1.084551" width="1.111036" x="-.055518" y="-.042275"><feGaussianBlur stdDeviation=".17498457"/></filter><g stroke-width="1.509966"><path d="m8.2091806.50151c-.1389169.1207972-.1102275.1630763-.3019932.3004832-1.3408496.9618481-3.2464264 1.6096235-5.4071874 2.0324139.4605396 4.8771894 1.9659754 8.3923899 3.5891886 10.5395609.9905376 1.31065 1.5326153 1.656433 2.119992 2.126032.5888864-.468089 1.1324744-.815382 2.1230114-2.126032 1.623214-2.147171 3.12865-5.6608615 3.589189-10.536541-2.162271-.4227904-4.069358-1.0720757-5.411717-2.0354338-.190256-.135897-.161567-.1811959-.3004834-.3019932z" fill="#794400"/><path d="m8.2089844.50195312c-.1389169.1207972-.1109687.16337436-.3027344.30078126-1.3408496.96184812-3.245489 1.60845962-5.40625 2.03125002.0158555.1679127.0422521.3216443.0605469.4863281 2.1350188-.4230189 4.0177851-1.0650064 5.3457031-2.0175781.1917657-.1374069.1638175-.1799841.3027344-.3007813.1371659.1197925.1112316.1653889.3007812.3007813 1.3294318.9540807 3.2150104 1.5984371 5.3515624 2.0214844.018317-.1648079.044674-.3182844.060547-.4863282-2.162271-.4227904-4.0697504-1.0717981-5.4121094-2.03515622-.1895496-.13539242-.1636153-.18098876-.3007812-.30078126z" fill="#fff" opacity=".3"/><path d="m2.5605469 2.8203125c-.0207913.0041195-.0397079.0095944-.0605469.0136719.4605396 4.8771894 1.9666306 8.3918916 3.5898438 10.5390626.9905375 1.31065 1.5317639 1.657354 2.1191406 2.126953.5888864-.468089 1.1325099-.816303 2.1230466-2.126953 1.623214-2.147171 3.129305-5.6594769 3.589844-10.5351564-.020823-.0040716-.039771-.0095582-.060547-.0136718-.513147 4.6169824-1.962028 7.9756612-3.529297 10.0488282-.9905367 1.31065-1.5341602 1.658864-2.1230466 2.126953-.5873767-.469599-1.1286031-.816303-2.1191406-2.126953-1.567329-2.073248-3.0162032-5.4340177-3.5292969-10.0527345z" opacity=".2"/></g><g filter="url(#a)" opacity=".5" transform="translate(.000729 .07)"><path d="m8.2091806 2.964c-.092.08-.073.108-.2.199-.888.637-2.15 1.066-3.581 1.346.305 3.23 1.302 5.558 2.377 6.98.656.868 1.015 1.097 1.404 1.408.39-.31.75-.54 1.406-1.408 1.0750004-1.422 2.0720004-3.749 2.3770004-6.978-1.432-.28-2.6950004-.71-3.5840004-1.348-.126-.09-.107-.12-.199-.2z"/><path d="m8.2089844 2.9648438c-.092.08-.072219.1062656-.1992188.1972656-.888.637-2.1510312 1.0676562-3.5820312 1.3476562.015873.1680976.041012.3231172.060547.4863282 1.4052892-.2802112 2.6464052-.706253 3.5214844-1.3339844.127-.091.1072188-.1172656.1992188-.1972656.090472.079123.073836.1077068.1992187.1972656.8760647.6287168 2.1171627 1.0556979 3.5234377 1.3359375.01953-.1631591.04467-.3182827.06055-.4863281-1.432004-.2800001-2.6949879-.7116094-3.5839879-1.3496094-.1253823-.0895588-.1087465-.118143-.1992187-.1972656z" opacity=".3"/><path d="m4.4882812 4.4960938c-.020749.00414-.039725.0096-.060547.013672.305 3.23 1.3019531 5.5565152 2.3769531 6.9785152.656.868 1.0152969 1.097203 1.4042969 1.408203.39-.31.75025-.540203 1.40625-1.408203 1.0750008-1.422 2.0719538-3.7475621 2.3769538-6.976562-.02084-.00407-.03978-.00953-.06055-.013672-.355829 2.971948-1.297352 5.1422389-2.3164068 6.490234-.656.868-1.01625 1.098203-1.40625 1.408203-.389-.311-.7482969-.540203-1.4042969-1.408203-1.019051-1.3479952-1.960574-3.5192939-2.3164031-6.4921872z" opacity=".2"/></g><g transform="translate(.000729 .07)"><path d="m8.2091806 2.964c-.092.08-.073.108-.2.199-.888.637-2.15 1.066-3.581 1.346.305 3.23 1.302 5.558 2.377 6.98.656.868 1.015 1.097 1.404 1.408.39-.31.75-.54 1.406-1.408 1.0750004-1.422 2.0720004-3.749 2.3770004-6.978-1.432-.28-2.6950004-.71-3.5840004-1.348-.126-.09-.107-.12-.199-.2z" fill="#adadad"/><path d="m8.2089844 2.9648438c-.092.08-.072219.1062656-.1992188.1972656-.888.637-2.1510312 1.0676562-3.5820312 1.3476562.015873.1680976.041012.3231172.060547.4863282 1.4052892-.2802112 2.6464052-.706253 3.5214844-1.3339844.127-.091.1072188-.1172656.1992188-.1972656.090472.079123.073836.1077068.1992187.1972656.8760647.6287168 2.1171627 1.0556979 3.5234377 1.3359375.01953-.1631591.04467-.3182827.06055-.4863281-1.432004-.2800001-2.6949879-.7116094-3.5839879-1.3496094-.1253823-.0895588-.1087465-.118143-.1992187-.1972656z" fill="#fff" opacity=".3"/><path d="m4.4882812 4.4960938c-.020749.00414-.039725.0096-.060547.013672.305 3.23 1.3019531 5.5565152 2.3769531 6.9785152.656.868 1.0152969 1.097203 1.4042969 1.408203.39-.31.75025-.540203 1.40625-1.408203 1.0750008-1.422 2.0719538-3.7475621 2.3769538-6.976562-.02084-.00407-.03978-.00953-.06055-.013672-.355829 2.971948-1.297352 5.1422389-2.3164068 6.490234-.656.868-1.01625 1.098203-1.40625 1.408203-.389-.311-.7482969-.540203-1.4042969-1.408203-1.019051-1.3479952-1.960574-3.5192939-2.3164031-6.4921872z" opacity=".2"/></g></svg>

<?xml version="1.0" encoding="UTF-8" standalone="no"?>
<svg
   xmlns:dc="http://purl.org/dc/elements/1.1/"
   xmlns:cc="http://creativecommons.org/ns#"
   xmlns:rdf="http://www.w3.org/1999/02/22-rdf-syntax-ns#"
   xmlns:svg="http://www.w3.org/2000/svg"
   xmlns="http://www.w3.org/2000/svg"
   xmlns:sodipodi="http://sodipodi.sourceforge.net/DTD/sodipodi-0.dtd"
   xmlns:inkscape="http://www.inkscape.org/namespaces/inkscape"
   height="16"
   width="16"
   version="1.1"
   id="svg4"
   sodipodi:docname="security-high.svg"
   inkscape:version="0.92.4 (5da689c313, 2019-01-14)">
  <metadata
     id="metadata10">
    <rdf:RDF>
      <cc:Work
         rdf:about="">
        <dc:format>image/svg+xml</dc:format>
        <dc:type
           rdf:resource="http://purl.org/dc/dcmitype/StillImage" />
      </cc:Work>
    </rdf:RDF>
  </metadata>
  <defs
     id="defs8">
    <filter
       inkscape:collect="always"
       style="color-interpolation-filters:sRGB"
       id="filter870"
       x="-0.055517927"
       width="1.1110359"
       y="-0.042275313"
       height="1.0845506">
      <feGaussianBlur
         inkscape:collect="always"
         stdDeviation="0.17498457"
         id="feGaussianBlur872" />
    </filter>
  </defs>
  <sodipodi:namedview
     pagecolor="#ffffff"
     bordercolor="#666666"
     borderopacity="1"
     objecttolerance="10"
     gridtolerance="10"
     guidetolerance="10"
     inkscape:pageopacity="0"
     inkscape:pageshadow="2"
     inkscape:window-width="1920"
     inkscape:window-height="1016"
     id="namedview6"
     showgrid="false"
     inkscape:zoom="52.4375"
     inkscape:cx="7.9809297"
     inkscape:cy="8"
     inkscape:window-x="0"
     inkscape:window-y="27"
     inkscape:window-maximized="1"
     inkscape:current-layer="svg4" />
  <path
     sodipodi:nodetypes="cccccccccc"
     inkscape:connector-curvature="0"
     d="M 8.2091806,0.50151 C 8.0702637,0.6223072 8.0989531,0.6645863 7.9071874,0.8019932 6.5663378,1.7638413 4.660761,2.4116167 2.5,2.8344071 2.9605396,7.7115965 4.4659754,11.226797 6.0891886,13.373968 7.0797262,14.684618 7.6218039,15.030401 8.2091806,15.5 8.798067,15.031911 9.341655,14.684618 10.332192,13.373968 11.955406,11.226797 13.460842,7.7131065 13.921381,2.837427 11.75911,2.4146366 9.852023,1.7653513 8.509664,0.8019932 8.319408,0.6660962 8.348097,0.6207973 8.2091806,0.5 Z"
     style="color:#000000;overflow:visible;fill:#794400;fill-opacity:1;stroke-width:1.50996578;marker:none"
     overflow="visible"
     id="path819" />
  <path
     style="color:#000000;overflow:visible;fill:#ffffff;fill-opacity:1;stroke-width:1.50996578;marker:none;opacity:0.3"
     d="M 8.2089844 0.50195312 C 8.0700675 0.62275032 8.0980157 0.66532748 7.90625 0.80273438 C 6.5654004 1.7645825 4.660761 2.411194 2.5 2.8339844 C 2.5158555 3.0018971 2.5422521 3.1556287 2.5605469 3.3203125 C 4.6955657 2.8972936 6.578332 2.2553061 7.90625 1.3027344 C 8.0980157 1.1653275 8.0700675 1.1227503 8.2089844 1.0019531 C 8.3461503 1.1217456 8.320216 1.167342 8.5097656 1.3027344 C 9.8391974 2.2568151 11.724776 2.9011715 13.861328 3.3242188 C 13.879645 3.1594109 13.906002 3.0059344 13.921875 2.8378906 C 11.759604 2.4151002 9.8521246 1.7660925 8.5097656 0.80273438 C 8.320216 0.66734196 8.3461503 0.62174562 8.2089844 0.50195312 z "
     id="path821" />
  <path
     style="color:#000000;overflow:visible;fill:#000000;fill-opacity:1;stroke-width:1.50996578;marker:none;opacity:0.2"
     d="M 2.5605469 2.8203125 C 2.5397556 2.824432 2.520839 2.8299069 2.5 2.8339844 C 2.9605396 7.7111738 4.4666306 11.225876 6.0898438 13.373047 C 7.0803813 14.683697 7.6216077 15.030401 8.2089844 15.5 C 8.7978708 15.031911 9.3414943 14.683697 10.332031 13.373047 C 11.955245 11.225876 13.461336 7.7135701 13.921875 2.8378906 C 13.901052 2.833819 13.882104 2.8283324 13.861328 2.8242188 C 13.348181 7.4412012 11.8993 10.79988 10.332031 12.873047 C 9.3414943 14.183697 8.7978708 14.531911 8.2089844 15 C 7.6216077 14.530401 7.0803813 14.183697 6.0898438 12.873047 C 4.5225148 10.799799 3.0736406 7.4390293 2.5605469 2.8203125 z "
     id="path826" />
  <g
     transform="translate(7.293e-4,0.07)"
     id="g852"
     style="fill:#000000;fill-opacity:1;filter:url(#filter870);opacity:0.5">
    <path
       id="path846"
       overflow="visible"
       style="color:#000000;overflow:visible;fill:#000000;fill-opacity:1;marker:none"
       d="m 8.2091806,2.964 c -0.092,0.08 -0.073,0.108 -0.2,0.199 -0.888,0.637 -2.15,1.066 -3.581,1.346 0.305,3.23 1.302,5.558 2.377,6.98 0.656,0.868 1.015,1.097 1.404,1.408 0.39,-0.31 0.75,-0.54 1.406,-1.408 1.0750004,-1.422 2.0720004,-3.749 2.3770004,-6.978 -1.432,-0.28 -2.6950004,-0.71 -3.5840004,-1.348 -0.126,-0.09 -0.107,-0.12 -0.199,-0.2 z"
       inkscape:connector-curvature="0"
       sodipodi:nodetypes="cccccccccc" />
    <path
       inkscape:connector-curvature="0"
       style="color:#000000;overflow:visible;opacity:0.3;fill:#000000;fill-opacity:1;marker:none"
       d="m 8.2089844,2.9648438 c -0.092,0.08 -0.072219,0.1062656 -0.1992188,0.1972656 -0.888,0.637 -2.1510312,1.0676562 -3.5820312,1.3476562 0.015873,0.1680976 0.041012,0.3231172 0.060547,0.4863282 1.4052892,-0.2802112 2.6464052,-0.706253 3.5214844,-1.3339844 0.127,-0.091 0.1072188,-0.1172656 0.1992188,-0.1972656 0.090472,0.079123 0.073836,0.1077068 0.1992187,0.1972656 0.8760647,0.6287168 2.1171627,1.0556979 3.5234377,1.3359375 0.01953,-0.1631591 0.04467,-0.3182827 0.06055,-0.4863281 C 10.560187,4.2317187 9.2972031,3.8001094 8.4082031,3.1621094 8.2828208,3.0725506 8.2994566,3.0439664 8.2089844,2.9648438 Z"
       id="path848" />
    <path
       inkscape:connector-curvature="0"
       style="color:#000000;overflow:visible;opacity:0.2;fill:#000000;fill-opacity:1;marker:none"
       d="m 4.4882812,4.4960938 c -0.020749,0.00414 -0.039725,0.0096 -0.060547,0.013672 0.305,3.23 1.3019531,5.5565152 2.3769531,6.9785152 0.656,0.868 1.0152969,1.097203 1.4042969,1.408203 0.39,-0.31 0.75025,-0.540203 1.40625,-1.408203 1.0750008,-1.422 2.0719538,-3.7475621 2.3769538,-6.976562 -0.02084,-0.00407 -0.03978,-0.00953 -0.06055,-0.013672 -0.355829,2.971948 -1.297352,5.1422389 -2.3164068,6.490234 -0.656,0.868 -1.01625,1.098203 -1.40625,1.408203 -0.389,-0.311 -0.7482969,-0.540203 -1.4042969,-1.408203 C 5.7856333,9.6402858 4.8441103,7.4689871 4.4882812,4.4960938 Z"
       id="path850" />
  </g>
  <g
     id="g844"
     transform="translate(7.293e-4,0.07)">
    <path
       sodipodi:nodetypes="cccccccccc"
       inkscape:connector-curvature="0"
       d="m 8.2091806,2.964 c -0.092,0.08 -0.073,0.108 -0.2,0.199 -0.888,0.637 -2.15,1.066 -3.581,1.346 0.305,3.23 1.302,5.558 2.377,6.98 0.656,0.868 1.015,1.097 1.404,1.408 0.39,-0.31 0.75,-0.54 1.406,-1.408 1.0750004,-1.422 2.0720004,-3.749 2.3770004,-6.978 -1.432,-0.28 -2.6950004,-0.71 -3.5840004,-1.348 -0.126,-0.09 -0.107,-0.12 -0.199,-0.2 z"
       style="color:#000000;overflow:visible;fill:#adadad;fill-opacity:1;marker:none"
       overflow="visible"
       id="path817" />
    <path
       id="path831"
       d="m 8.2089844,2.9648438 c -0.092,0.08 -0.072219,0.1062656 -0.1992188,0.1972656 -0.888,0.637 -2.1510312,1.0676562 -3.5820312,1.3476562 0.015873,0.1680976 0.041012,0.3231172 0.060547,0.4863282 1.4052892,-0.2802112 2.6464052,-0.706253 3.5214844,-1.3339844 0.127,-0.091 0.1072188,-0.1172656 0.1992188,-0.1972656 0.090472,0.079123 0.073836,0.1077068 0.1992187,0.1972656 0.8760647,0.6287168 2.1171627,1.0556979 3.5234377,1.3359375 0.01953,-0.1631591 0.04467,-0.3182827 0.06055,-0.4863281 C 10.560187,4.2317187 9.2972031,3.8001094 8.4082031,3.1621094 8.2828208,3.0725506 8.2994566,3.0439664 8.2089844,2.9648438 Z"
       style="color:#000000;overflow:visible;opacity:0.3;fill:#ffffff;fill-opacity:1;marker:none"
       inkscape:connector-curvature="0" />
    <path
       id="path836"
       d="m 4.4882812,4.4960938 c -0.020749,0.00414 -0.039725,0.0096 -0.060547,0.013672 0.305,3.23 1.3019531,5.5565152 2.3769531,6.9785152 0.656,0.868 1.0152969,1.097203 1.4042969,1.408203 0.39,-0.31 0.75025,-0.540203 1.40625,-1.408203 1.0750008,-1.422 2.0719538,-3.7475621 2.3769538,-6.976562 -0.02084,-0.00407 -0.03978,-0.00953 -0.06055,-0.013672 -0.355829,2.971948 -1.297352,5.1422389 -2.3164068,6.490234 -0.656,0.868 -1.01625,1.098203 -1.40625,1.408203 -0.389,-0.311 -0.7482969,-0.540203 -1.4042969,-1.408203 C 5.7856333,9.6402858 4.8441103,7.4689871 4.4882812,4.4960938 Z"
       style="color:#000000;overflow:visible;opacity:0.2;fill:#000000;fill-opacity:1;marker:none"
       inkscape:connector-curvature="0" />
  </g>
</svg>
